images/icons/white-arrow-up.svg

<svg width="21" height="35" viewBox="0 0 21 35" fill="none" xmlns="http://www.w3.org/2000/svg">
<path d="M0.485983 11.9237C0.796854 12.2408 1.21825 12.419 1.65761 12.419C2.09698 12.419 2.51837 12.2408 2.82924 11.9237L8.84214 5.78207L8.84214 33.3065C8.84214 33.7557 9.01682 34.1864 9.32775 34.504C9.63868 34.8216 10.0604 35 10.5001 35C10.9398 35 11.3615 34.8216 11.6725 34.504C11.9834 34.1864 12.1581 33.7557 12.1581 33.3065L12.1581 5.78658L18.1688 11.9237C18.3228 12.081 18.5056 12.2058 18.7068 12.2909C18.908 12.3761 19.1237 12.4199 19.3415 12.4199C19.7814 12.4199 20.2032 12.2414 20.5142 11.9237C20.8253 11.606 21 11.1751 21 10.7259C21 10.2766 20.8253 9.8457 20.5142 9.52801L11.6717 0.496197C11.518 0.338898 11.3353 0.214108 11.1343 0.128967C10.9332 0.0438232 10.7177 0 10.5001 0C10.2825 0 10.067 0.0438232 9.86594 0.128967C9.6649 0.214108 9.48226 0.338898 9.32848 0.496197L0.485983 9.52801C0.331915 9.68528 0.209694 9.87202 0.126307 10.0775C0.0429192 10.2831 0 10.5034 0 10.7259C0 10.9483 0.0429192 11.1686 0.126307 11.3742C0.209694 11.5797 0.331915 11.7664 0.485983 11.9237Z" fill="white"/>
</svg>

<svg width="21" height="35" fill="none" xmlns="http://www.w3.org/2000/svg"><path d="M.486 11.924c.31.317.732.495 1.172.495.439 0 .86-.178 1.171-.495l6.013-6.142v27.524c0 .45.175.88.486 1.198.31.318.732.496 1.172.496.44 0 .861-.178 1.172-.496.311-.318.486-.748.486-1.197V5.787l6.01 6.137a1.656 1.656 0 0 0 1.174.496c.44 0 .861-.179 1.172-.496.311-.318.486-.749.486-1.198 0-.45-.175-.88-.486-1.198L11.672.496A1.653 1.653 0 0 0 10.5 0a1.626 1.626 0 0 0-1.172.496L.486 9.528A1.697 1.697 0 0 0 0 10.726a1.725 1.725 0 0 0 .486 1.198Z" fill="#fff"/></svg>
